app/assets/images/heroicons/outline/calendar-date-range.svg

<svg width="24" height="24" viewBox="0 0 24 24" fill="none" xmlns="http://www.w3.org/2000/svg">
<path d="M6.7491 2.9945V5.24472M17.2494 2.99316V5.24338M2.99756 18.7434V7.49209C2.99756 6.24938 4.00496 5.24197 5.24766 5.24197H18.7475C19.9902 5.24197 20.9976 6.24938 20.9976 7.49209V18.7434M2.99756 18.7434C2.99756 19.9861 4.00496 20.9935 5.24766 20.9935H18.7475C19.9902 20.9935 20.9976 19.9861 20.9976 18.7434M2.99756 18.7434V11.2429C2.99756 10.0002 4.00496 8.99282 5.24766 8.99282H18.7475C19.9902 8.99282 20.9976 10.0002 20.9976 11.2429V18.7434M14.2475 12.7429H16.4975M7.49752 14.9932H11.9975M11.9997 12.7429H12.0053V12.7486H11.9997V12.7429ZM11.9989 17.2437H12.0046V17.2493H11.9989V17.2437ZM9.74858 17.2444H9.75421V17.25H9.74858V17.2444ZM7.49824 17.2437H7.50387V17.2493H7.49824V17.2437ZM14.2485 14.9969H14.2542V15.0025H14.2485V14.9969ZM14.2493 17.2444H14.255V17.25H14.2493V17.2444ZM16.4996 14.9955H16.5052V15.0011H16.4996V14.9955Z" stroke="black" stroke-width="1.5" stroke-linecap="round" stroke-linejoin="round"/>
</svg>

<svg xmlns="http://www.w3.org/2000/svg" fill="none" viewBox="0 0 24 24" stroke-width="1.5" stroke="currentColor" aria-hidden="true" data-slot="icon">
  <path stroke-linecap="round" stroke-linejoin="round" d="M6.75 2.994v2.25m10.5-2.25v2.25m-14.252 13.5V7.491a2.25 2.25 0 0 1 2.25-2.25h13.5a2.25 2.25 0 0 1 2.25 2.25v11.251m-18 0a2.25 2.25 0 0 0 2.25 2.25h13.5a2.25 2.25 0 0 0 2.25-2.25m-18 0v-7.5a2.25 2.25 0 0 1 2.25-2.25h13.5a2.25 2.25 0 0 1 2.25 2.25v7.5m-6.75-6h2.25m-9 2.25h4.5m.002-2.25h.005v.006H12v-.006Zm-.001 4.5h.006v.006h-.006v-.005Zm-2.25.001h.005v.006H9.75v-.006Zm-2.25 0h.005v.005h-.006v-.005Zm6.75-2.247h.005v.005h-.005v-.005Zm0 2.247h.006v.006h-.006v-.006Zm2.25-2.248h.006V15H16.5v-.005Z"/>
</svg>
